X: 1
T: Green Flag, The
M: 4/4
L: 1/8
R: barndance
K: Dmaj
|: A2A>B d2d2 | e2e>f e2d2 | B2g2 f>gaf | d2d>e fedB | 
A2A>B d2d2 | e2e>f e2d2 | B2g2 f>gaf | d2d>e d4 :|
|: f3g a2f2 | g2f2 e2d2 | f3g a2f2 | g2f2 e4 | 
f3g a2f2 | g2f2 e2d2 | B2g2 f>gaf | d2d>e d4 :|
